X: 24
T:Bashful Beau (#224), The
M:4/4
L:1/8
S:Rice-Walsh manuscript
R:Reel
K:G
defg fcdB|AD (3FED FAdc|BEEF GABc|dBAc BE E2|
Bdef d2 dB|AD (3FED FAdc|BEEF GABc|dBAc BE E2||
e2 ef g2 fe|defg afdf|e2 ef gfge|dBAc BE E2|
e2 ef g2 fe|defg afdf|gabg fagf|(3efg fa gfge||

